X:670
T:Oovie Avie
T:Mairi's Wedding
D:GFW Slow Session 12
N:As played by Finlay Allison
Z:Nigel Gatherer
M:4/4
L:1/8
K:Bm
B>BB>B B>BB>B | F>FF>E D>EF<A | B>BB>B B>BB>B | A>B (3cBA B2 B2  :| 
B2 d2  f2 b2  | f>ff>e d>ef<a | B2 d2  f2 b2  | A>B (3cBA B2 B2 :|]
<end>
<start>
